X: 27
M:C|
L:1/8
K:Bb
(ude)|f>=ef>g f>_ed>c|{c}B>AB>c d>BF>D|\
E>Gc>e D>FB>d|((3cdc) ((3BAG) F2(de)|
f>=ef>g f>_ed>c|{c}B>AB>c d>BF>D|\
E>Gc>e d>cB>A|B2d2B2:|
|:(uAB)|c>f=e>f a>fe>f|d>g^f>g b>gf>g|(db)(ca) (Bg)(Af)|
|1 (db)(ca) (Bg)(Af)|G>bg>=e f2:|2 (db)(ca) (Bg)(d=e)|f>_ec>A F2(de)|]


